svg/fluentui-system-icons/ic_fluent_table_freeze_column_and_row_24_regular.svg

<svg width="24" height="24" viewBox="0 0 24 24" fill="none" xmlns="http://www.w3.org/2000/svg">
<path d="M6.25 3C4.45507 3 3 4.45507 3 6.25V17.75C3 19.5449 4.45507 21 6.25 21H17.75C19.5449 21 21 19.5449 21 17.75V6.25C21 4.45507 19.5449 3 17.75 3H6.25ZM19.5 8.5H9.25C8.83579 8.5 8.5 8.83579 8.5 9.25V19.5H6.25C5.2835 19.5 4.5 18.7165 4.5 17.75V6.25C4.5 5.2835 5.2835 4.5 6.25 4.5H17.75C18.7165 4.5 19.5 5.2835 19.5 6.25V8.5ZM14 10V14H10V10H14ZM15.5 14V10H19.5V14H15.5ZM14 15.5V19.5H10V15.5H14ZM15.5 19.5V15.5H19.5V17.75C19.5 18.7165 18.7165 19.5 17.75 19.5H15.5Z" fill="#212121"/>
</svg>

<svg xmlns="http://www.w3.org/2000/svg" width="24" height="24"><path d="M6.25 3A3.25 3.25 0 0 0 3 6.25v11.5A3.25 3.25 0 0 0 6.25 21h11.5A3.25 3.25 0 0 0 21 17.75V6.25A3.25 3.25 0 0 0 17.75 3H6.25ZM19.5 8.5H9.25a.75.75 0 0 0-.75.75V19.5H6.25a1.75 1.75 0 0 1-1.75-1.75V6.25c0-.966.784-1.75 1.75-1.75h11.5c.966 0 1.75.784 1.75 1.75V8.5ZM14 10v4h-4v-4h4Zm1.5 4v-4h4v4h-4ZM14 15.5v4h-4v-4h4Zm1.5 4v-4h4v2.25a1.75 1.75 0 0 1-1.75 1.75H15.5Z"/></svg>
